X:480
T:Seamus Cooley's
M:6/8
L:1/8
K:G
BAB G2 E|DB,D DEG|GAB AGE|1 A2 AGA:|2 G3 G2 A |
|: BAB d2 B|BAB d2 B|A2 AGE|ABA AGE|
|1 BAB d2 B|BAB d2 B|G3 B AGE|G3 G2 A :|
|2 BAB G2 E|DB,D DEG|GAB AGE| G3 G2 A |>|
